static/assets/img/icons/theme/files/downloads-folder.svg

<svg height="24" viewBox="0 0 24 24" width="24" xmlns="http://www.w3.org/2000/svg"><g fill="none" fill-rule="evenodd"><path d="m0 0h24v24h-24z" opacity="0"/><g fill="#000"><path d="m3.5 21h17c.8284271 0 1.5-.6715729 1.5-1.5v-11c0-.82842712-.6715729-1.5-1.5-1.5h-10.5l-2.56066017-2.56066017c-.28130457-.28130457-.66283544-.43933983-1.06066017-.43933983h-2.87867966c-.82842712 0-1.5.67157288-1.5 1.5v14c0 .8284271.67157288 1.5 1.5 1.5z" opacity=".3"/><path d="m14.8875071 12.8306874h-1.9564735v-2.0076713c0-.2761424-.2238576-.5-.5-.5h-1.0232987c-.2761424 0-.5.2238576-.5.5v2.0076713h-1.9564735c-.27614237 0-.5.2238576-.5.5 0 .1183116.04195378.2327902.11840318.3230849l2.96812282 3.5056611c.1784349.2107501.4939317.2369468.7046818.0585119.0210871-.0178538.0406581-.0374247.0585119-.0585119l2.9681228-3.5056611c.1784349-.2107501.1522382-.5262469-.0585119-.7046818-.0902947-.0764494-.2047733-.1184031-.3230849-.1184031z"/></g></g></svg>

<svg width="24px" height="24px" viewBox="0 0 24 24" version="1.1" xmlns="http://www.w3.org/2000/svg" xmlns:xlink="http://www.w3.org/1999/xlink">
    <title>Icon For Downloads-folder</title>
    <g stroke="none" stroke-width="1" fill="none" fill-rule="evenodd">
        <rect opacity="0" x="0" y="0" width="24" height="24"></rect>
        <path d="M3.5,21 L20.5,21 C21.3284271,21 22,20.3284271 22,19.5 L22,8.5 C22,7.67157288 21.3284271,7 20.5,7 L10,7 L7.43933983,4.43933983 C7.15803526,4.15803526 6.77650439,4 6.37867966,4 L3.5,4 C2.67157288,4 2,4.67157288 2,5.5 L2,19.5 C2,20.3284271 2.67157288,21 3.5,21 Z" fill="#000000" opacity="0.3"></path>
        <path d="M14.8875071,12.8306874 L12.9310336,12.8306874 L12.9310336,10.8230161 C12.9310336,10.5468737 12.707176,10.3230161 12.4310336,10.3230161 L11.4077349,10.3230161 C11.1315925,10.3230161 10.9077349,10.5468737 10.9077349,10.8230161 L10.9077349,12.8306874 L8.9512614,12.8306874 C8.67511903,12.8306874 8.4512614,13.054545 8.4512614,13.3306874 C8.4512614,13.448999 8.49321518,13.5634776 8.56966458,13.6537723 L11.5377874,17.1594334 C11.7162223,17.3701835 12.0317191,17.3963802 12.2424692,17.2179453 C12.2635563,17.2000915 12.2831273,17.1805206 12.3009811,17.1594334 L15.2691039,13.6537723 C15.4475388,13.4430222 15.4213421,13.1275254 15.210592,12.9490905 C15.1202973,12.8726411 15.0058187,12.8306874 14.8875071,12.8306874 Z" fill="#000000"></path>
    </g>
</svg>
